X:1
T:Light Of The Seven
T: Needle (Advanced Piano Solo)
T: Game Of Thrones OST Season 6
T: Composed by Ramin Djawadi Piano arrangement by Nicolas Del Gallo Full playthrough and more at https://www.youtube.com/c/NDGmusic If you want to donate, please check out my Patreon ☺ https://www.patreon.com/ndg 
C:Ramin Djawadi
%%score { ( 1 4 ) | ( 2 3 ) }
L:1/8
Q:1/8=140
M:6/8
K:E
V:1 treble nm="Piano" snm="Pno."
V:4 treble 
V:2 treble 
V:3 treble 
V:1
!mf! B,E/B,/F B,E/B,/F | B,E/B,/F B,E/B,/F | B,E/B,/F B,E/B,/F | B,E/B,/F B,E/B,/F | %4
 B,E/B,/F B,E/B,/F | B,E/B,/F B,E/B,/F | B,E/B,/F B,E/B,/F | B,E/B,/F B,E/B,/F | %8
 B,E/B,/F B,E/B,/F | CE/C/A CE/C/A | CE/C/A CE/C/A | CE/C/A CE/C/A |!sfz! B,E/B,/F B,E/B,/F | %13
 B,E/[B,C]/F [B,D]E/[B,E]/F | [B,=G]F/B,/E [B,D][CE]/B,/[B,F] | [B,=G]F/B,/E [B,=D][CE]/B,/[B,F] | %16
 [B,=G]F/B,/E [B,=D][CE]/B,/[B,F] | [B,,B,]E/[B,C]/F [B,D]E/[B,=G]/F | %18
 [B,F]F/B,/E [B,D][CE]/B,/[B,F] | [B,=G]F/B,/E [B,D][CE]/B,/[B,F] | %20
 [D,F,B,]3/2[E,F,C]3/2 [F,B,D]3/2[=G,B,E]3/2 | [CA]/[CA]/[CE]/[CE]/[CA] [CA]/[CA]/[CE]/[CE]/[CA] | %22
 [CA]/[CA]/[CE]/[CE]/[CA] [CA]/[CA]/[CE]/[CE]/[CA] | [CA]3/2!>(![B,=G]3/2 [A,F]3/2[=G,E]3/2!>)! | %24
!mf! [A,F]/[A,F]/[A,=D]/[A,D]/F [A,F]/[A,F]/[A,D]/[A,D]/F | %25
 [A,F]/[A,F]/[A,=D]/[A,D]/F [A,F]/[A,F]/[A,D]/[A,D]/F | %26
[K:G] [Aa]/[Aa]/[Aa]/[Gg]/[Gg]/[Gg]/ [FBf]/[Ff]/[Ff]/[Ee]/[Ee]/[Ee]/ | %27
 [GBg]/[Gg]/[Gg]/[Ff]/[Ff]/[Ff]/ [EFBe]/[Ee]/[Ee]/[DFBd]/[Dd]/[Dd]/ | %28
 [Bg]/[Af]/[Ge]/[EG]/[FA]/[GB]/ [Bg]/[Af]/[Ge]/[EG]/[FA]/[GB]/ | %29
 [Bg]/[Af]/[Ge]/[EG]/[FA]/[GB]/ [Bg]/[Af]/[Ge]/[EG]/[FA]/[GB]/ | %30
 [Bg]/[Af]/[Ge]/[EG]/[FA]/[GB]/ [Bg]/[Af]/[Ge]/[EG]/[FA]/[GB]/ | %31
 [Bg]/[Af]/[Ge]/[EG]/[FA]/[GB]/ [Bg]/[Af]/[Ge]/[EG]/[FA]/[GB]/ | %32
 [GB]/[GB]/[GB]/[GB^c]/[GB]/[GB]/ [GB^d]/[GB]/[GB]/[GBf]/[GB]/[GB]/ | %33
!<(! !>![GBe]/!>![GBe]/[GB]/[GB]/!>![GBe]/[GB]/ !>![GBe]/!>![GBe]/[GB]/[GB]/!>![GBe]/[GB]/ | %34
 !>![FBf]/!>![FBf]/[FBd]/[FBd]/!>![FBf]/[FB]/ !>![FBf]/!>![FBf]/[FBd]/[FBd]/!>![FBf]/[FB]/!<)! | %35
[K:E] [Bdb]/[cec']/[cec']/[dfd']/[dfd']/[e=ge']/ [ege']/[faf']/[faf']/[g=g']/[aa']/[bb']/ | %36
 [B,B]/[Cc]/[Cc]/[=D=d]/[Dd]/[Ee]/ [Ee]/[Ff]/[Ff]/[=G=g]/[Bb]/[Aa]/ | %37
!p! ^A,/!<(!B,/B,/C/C/=D/ D/E/E/F/G/^A/!<)! |!mf! B,3/2[B,C]3/2 [B,CD]3/2[B,CE]3/2 | [B,C=G]6 | %40
 z6 | B,3/2[B,C]3/2 [B,CD]3/2[B,CD=G]3/2 | [B,CDF]6 | z6 | B,3/2[B,C]3/2 [B,CD]3/2[B,CE]3/2 | %45
 [B,CEA]6 | z6 | [CEA]3/2[B,CE=G]3/2 [B,CEF]3/2[B,CE]3/2 ||[K:D] [A,DF]6 | z6 | %50
 [Aa]3/2[Gg]3/2 [Ff]3/2[Ee]3/2 | [Gg]3/2[Ff]3/2 [Ee]3/2[Dd]3/2 | %52
!ff! [B,E]/F/[B,F]/G/[B,A]/B/ E/F/F/G/B/A/ | E/F/F/G/A/B/ E/F/F/G/B/A/ | %54
 [B,B]/[Cc]/[Cc]/[Dd]/[Ee]/[Ff]/ [B,B]/[Cc]/[Cc]/[Dd]/[Ee]/[Ff]/ | %55
 [B,B]/[Cc]/[Cc]/[Dd]/[Ee]/[Ff]/ [B,B]/[Cc]/[Cc]/[Dd]/[Ee]/[Ff]/ | E/F/F/G/A/B/ E/F/F/G/B/A/ | %57
 [Ff][Bb]/[Ff]/[dd'] [Ff][Bb]/[Ff]/[dd'] | G/B/B/c/d/e/ G/B/B/c/d/e/ | %59
 [Gg][dd']/[Gg]/[ee'] [Gg][dd']/[Gg]/[ee'] | B/d/d/e/f/g/ d/e/e/f/g/a/ | %61
!mf! [bb']/!<(![aa']/[aa']/[gg']/[gg']/[ff']/ [bb']/[aa']/[aa']/[gg']/[ff']/[ee']/!<)! | %62
!ff! [B,B]/A/[EA]/[B,G]/[FG]/F/ [=CB]/A/[EA]/[CG]/F/E/ | DG/D/A =FA/F/B |!mp!"_cresc." z4 z3/2 B/ | %65
 B/A/A/G/G/F/ F/E/E/[ee']/[ee']/[^d^d']/ | %66
 [^d^d']/[cc']/[cc']/[Bb]/[Bb]/[gbe'g']/ [gbe'g']/[fbe'f']/[fbe'f']/[ee']/[ee']/[dfbd']/ | %67
 [^dfb^d']/[cc']/[cc']/[B=dfb]/[Bdfb]/[cc']/ [cc']/[d=d']/[ee']/[ff']/[gg']/[aa']/ | %68
!ff! .[bb'] z z4 |] %69
V:2
 z6 | z6 | !>!B,,3/2[Cc]3/2 [Dd]3/2[Ee]3/2 | [=G=g]6 | z6 | !>!B,,3/2[Cc]3/2 [Dd]3/2[=G=g]3/2 | %6
 [Ff]6 | z6 | !>!B,,3/2[Cc]3/2 [Dd]3/2[Ee]3/2 | [Aa]6 | z6 | [Aa]3/2[=G=g]3/2 [Ff]3/2[Ee]3/2 | %12
[K:bass] [B,,,,B,,,]B,,/B,,/[B,,,B,,] [B,,,B,,]B,,/B,,/[B,,,B,,] | %13
 [B,,,B,,]B,,/B,,/[B,,,B,,] [B,,,B,,]B,,/B,,/[B,,,B,,] | %14
 !arpeggio![B,,,,B,,,]B,,/B,,/[B,,,B,,] [B,,,B,,]B,,/B,,/[B,,,B,,] | %15
 [B,,,B,,]/[B,,,B,,]/[B,,,=G,,]/[B,,,G,,]/[B,,,B,,] [B,,,B,,]/[B,,,B,,]/[B,,,G,,]/[B,,,G,,]/[B,,,B,,] | %16
 [B,,,B,,]/[B,,,B,,]/[B,,,=G,,]/[B,,,G,,]/[B,,,B,,] [B,,,B,,]/[B,,,B,,]/[B,,,G,,]/[B,,,G,,]/[B,,,B,,] | %17
 [E,,,E,,][B,,,B,,]/[B,,,B,,]/[B,,,B,,] [B,,,B,,][B,,,B,,]/[B,,,B,,]/[B,,,B,,] | %18
 [B,,,B,,]/[B,,,B,,]/[B,,,F,,]/[B,,,F,,]/[B,,,B,,] [B,,,B,,]/[B,,,B,,]/[B,,,F,,]/[B,,,F,,]/[B,,,B,,] | %19
 [B,,,B,,]/[B,,,B,,]/[B,,,F,,]/[B,,,F,,]/[B,,,B,,] [B,,,B,,]/[B,,,B,,]/[B,,,F,,]/[B,,,F,,]/[B,,,B,,] | %20
 [B,,,,B,,,]3/2[B,,,B,,]B,,/ B,,,B,,,/B,,B,,/ | [A,,,A,,]E,/C,/A, [A,,,A,,]E,/C,/A, | %22
 [A,,,A,,]E,/C,/A, [A,,,A,,]E,/C,/A, | [A,,,A,,]=G,/A,,/F, [A,,E,]=D,/A,,/C, | %24
 [=D,,,=D,,][A,,F,]/=D,/A, [D,,,D,,][A,,F,]/D,/A, | %25
 [=D,,,=D,,][A,,F,]/=D,/[E,A,] [D,,D,][C,F,]/D,/[D,A,] |[K:G] [G,,G,]3 [E,,E,]3 | %27
 [A,,,A,,]3 [B,,,B,,]3 | %28
 [E,,,E,,]/[E,,E,]/[E,,B,,]/[E,,B,,]/[E,,E,] [E,,,E,,]/[E,,E,]/[E,,B,,]/[E,,B,,]/[E,,E,] | %29
 [E,,,E,,]/[E,,E,]/[E,,B,,]/[E,,B,,]/[E,,E,] [E,,,E,,]/[E,,E,]/[E,,B,,]/[E,,B,,]/[E,,E,] | %30
 [F,,,F,,]E,/B,,/F, F,,E,/B,,/F, | [F,,,F,,]E,/B,,/F, F,,E,/B,,/F, | %32
 [G,,,G,,]E,/B,,/F, G,,E,/B,,/F, | [C,,C,]E,/C,/G, [C,,C,]E,/C,/G, | %34
 [D,,D,]F,/D,/A, [D,,D,]F,/D,/A, |[K:E] z6 | =D,/E,/E,/F,/F,/=G,/ G,/A,/A,/B,/=D/C/ | %37
 [F,,,F,,]/[G,,,G,,]/[G,,,G,,]/[^A,,,^A,,]/[A,,,A,,]/[B,,,B,,]/ [F,,B,,]/[F,,C,]/[F,,C,]/[F,,=D,]/[F,,E,]/[F,,F,]/ | %38
 B,,/B,,/B,,/B,,/B,, B,,/B,,/B,,/B,,/B,, | [=G,,,=G,,]/G,,/G,,G,,/G,,/ G,,<G,,G,,/G,,/ | %40
 [E,,,E,,]/E,,/E,,/E,,/E,,/E,,/ E,,/E,,E,,/E,,/E,,/ | E,,/E,,/E,,E,,/E,,/ E,,/E,,/E,,E,,/E,,/ | %42
 [B,,,B,,]E,/B,,/F, [B,,,B,,]E,/B,,/F, | [B,,,B,,]E,/B,,/F, [B,,,B,,]E,/B,,/F, | %44
 B,,/B,,/B,,/B,,/B,, B,,/B,,/B,,/B,,/B,, | [A,,,A,,]E,/C,/A, [A,,,A,,]E,/C,/A, | %46
 [A,,,A,,]E,/C,/A, [A,,,A,,]E,/C,/A, | A,,/A,,/A,,A,,/A,,/ A,,/A,,/A,,A,,/A,,/ || %48
[K:D] [D,,D,]E,/D,/F, [D,,D,]E,/D,/F, | [D,,D,]E,/D,/F, [D,,D,]E,/D,/F, | %50
 [D,,D,]/D,/G,/D,/F, [=C,,=C,]/C,/F,/C,/E, | [A,,,A,,]/A,,/F,/A,,/E, [B,,,B,,]/B,,/E,/B,,/D, | %52
 !>![E,,,E,,]/B,,/D,/E,/F,/G,/ !>![E,,,E,,]/B,,/D,/E,/G,/F,/ | %53
 !>![E,,,E,,]/B,,/D,/E,/F,/G,/ !>![E,,,E,,]/B,,/D,/E,/G,/F,/ | %54
 [F,,,F,,][F,,E,]/[F,,B,,]/[F,,F,] [F,,,F,,][F,,E,]/[F,,B,,]/[F,,F,] | %55
 [G,,,G,,][G,,E,]/[G,,B,,]/[G,,F,] [G,,,G,,][G,,E,]/[G,,B,,]/[G,,F,] | %56
 [A,,,A,,]E,/A,,/F, A,,E,/A,,/F, | %57
 [B,,,B,,]/[B,,,B,,]/[B,,,F,,]/[B,,,F,,]/[B,,,B,,] [B,,,B,,]/[B,,,B,,]/[B,,,F,,]/[B,,,F,,]/[B,,,B,,] | %58
 [E,,B,,]E,/B,,/G, [E,,B,,]E,/B,,/G, | %59
 [=C,,=C,]/[C,,C,]/[C,,G,,]/[C,,G,,]/[C,,C,] [C,,C,]/[C,,C,]/[C,,G,,]/[C,,G,,]/[C,,C,] | %60
 [F,,,F,,]E,/D,/F, [F,,,F,,]E,/D,/F, | z6 | %62
 [B,,,B,,]/[B,,,B,,]/[B,,,B,,]/[B,,,B,,]/[B,,,B,,] [A,,,A,,]/[A,,,A,,]/[A,,,A,,]/[A,,,A,,]/[A,,,A,,] | %63
 [G,,,G,,]/[G,,,G,,]/[G,,,G,,]/[G,,,G,,]/[G,,,G,,] [=F,,,=F,,]/[F,,,F,,]/[F,,,F,,]/[F,,,F,,]/[F,,,F,,] | %64
 [B,,,,B,,,]/[C,,,C,,]/[C,,,C,,]/[^D,,,^D,,]/[D,,,D,,]/[E,,,E,,]/ [E,,,E,,]/[F,,,F,,]/[F,,,F,,]/[G,,,G,,]/[A,,,A,,]/[B,,,B,,]/ | %65
 [B,,,B,,]/[C,,C,]/[C,,C,]/[^D,,^D,]/[D,,D,]/[E,,E,]/ [E,,E,]/[F,,F,]/[F,,F,]/[G,,G,]/[A,,A,]/[B,,B,]/ | %66
 [B,,B,]/[C,C]/[C,C]/[D,D]/[D,D]/[E,E]/ [E,E]/[F,F]/[F,F]/[G,G]/[G,G]/[F,F]/ | %67
 [F,F]/[E,E]/[E,E]/[D,D]/[D,D]/[C,C]/ [C,C]/[B,,B,]/[A,,A,]/[G,,G,]/[F,,F,]/[E,,E,]/ | %68
 .[B,,,B,,] z z4 |] %69
V:3
 x6 | x6 | x6 | x6 | x6 | x6 | x6 | x6 | x6 | x6 | x6 | x6 |[K:bass] x6 | x6 | x6 | x6 | x6 | x6 | %18
 x6 | x6 | x6 | x6 | x6 | x6 | x6 | x6 |[K:G] x6 | x6 | x6 | x6 | x6 | x6 | x6 | x6 | x6 | %35
[K:E] x6 | x6 | x6 | x6 | B,,E,/B,,/F, B,,E,/B,,/F, | B,,E,/B,,/F, B,,E,/B,,/F, | x6 | x6 | x6 | %44
 x6 | x6 | x6 | x6 ||[K:D] x6 | x6 | x6 | x6 | x6 | x6 | x6 | x6 | x6 | x6 | x6 | x6 | x6 | x6 | %62
 x6 | x6 | x6 | x6 | x6 | x6 | x6 |] %69
V:4
 x6 | x6 | x6 | x6 | x6 | x6 | x6 | x6 | x6 | x6 | x6 | x6 | x6 | x6 | x6 | x6 | x6 | x6 | x6 | %19
 x6 | x6 | x6 | x6 | x6 | x6 | x6 |[K:G] x6 | x6 | x6 | x6 | x6 | x6 | x6 | x6 | x6 |[K:E] x6 | %36
 x6 | x6 | x6 | x6 | x6 | x6 | z/ C/C/D/D/E/ E/F/F/=G/A/B/ | B,/C/C/D/D/E/ E/F/F/=G/B/A/ | x6 | %45
 z C/D/D/E/ E/F/F/=G/A/B/ | B,/C/C/D/D/E/ E/F/F/=G/B/A/ | x6 ||[K:D] z/ E/E/F/F/G/ G/A/A/B/c/d/ | %49
 D/E/E/F/F/G/ G/A/A/B/e/d/ | x6 | x6 | x6 | x6 | x6 | x6 | x6 | x6 | x6 | x6 | x6 | %61
 z3 B/A/A/G/F/E/ | x6 | x6 | x6 | x6 | x6 | x6 | x6 |] %69

